symbolic/24x24/apps/parole.svg

<svg xmlns="http://www.w3.org/2000/svg" width="24" height="24" version="1.1">
 <path style="opacity:0.2" d="M 3.5384617,21.5 H 20.461538 C 21.313846,21.5 22,20.7864 22,19.9 V 16 H 2.0000001 v 3.9 c 0,0.8864 0.6861538,1.6 1.5384616,1.6 z"/>
 <path style="fill:#e4e4e4" d="M 3.5384617,21 H 20.461538 C 21.313846,21 22,20.2864 22,19.4 V 16 H 2.0000001 v 3.4 c 0,0.8864 0.6861538,1.6 1.5384616,1.6 z"/>
 <path style="fill:#3f3f3f" d="M 3.5384617,2 H 20.461538 C 21.313846,2 22,2.7136 22,3.6 V 16 H 2.0000001 V 3.6 c 0,-0.8864 0.6861538,-1.6 1.5384616,-1.6 z"/>
 <rect style="fill:#7e7e7e" width="10" height="1" x="10" y="18"/>
 <rect style="fill:#f04113" width="6" height="1" x="4" y="18"/>
 <rect style="opacity:0.2;fill:#ffffff" width="2" height="1" x="9" y="18"/>
 <path style="opacity:0.2" d="m 12,4.5 c -2.7597309,0 -5,2.2402691 -5,5 0,2.759731 2.2402691,5 5,5 2.759731,0 5,-2.240269 5,-5 0,-2.7597309 -2.240269,-5 -5,-5 z M 12,5 c 2.486899,0 4.5,2.013101 4.5,4.5 C 16.5,11.986898 14.486899,14 12,14 9.5131018,14 7.5,11.986898 7.5,9.5 7.5,7.013101 9.5131018,5 12,5 Z M 11.003906,7.25 11,11.75 14.599609,9.503906 Z"/>
 <path style="fill:#ffffff" d="M 14.6,9.003022 11,11.25 11.0032,6.75 Z"/>
 <path style="fill:#ffffff" d="M 12,4 C 9.2402691,4 7,6.2402691 7,9 c 0,2.759731 2.2402691,5 5,5 2.759731,0 5,-2.240269 5,-5 0,-2.7597309 -2.240269,-5 -5,-5 z m 0,0.5 c 2.486899,0 4.5,2.013101 4.5,4.5 0,2.486898 -2.013101,4.5 -4.5,4.5 C 9.5131018,13.5 7.5,11.486898 7.5,9 7.5,6.513101 9.5131018,4.5 12,4.5 Z"/>
 <rect style="opacity:0.1" width="16" height=".5" x="4" y="19"/>
 <path style="opacity:0.1;fill:#ffffff" d="M 3.538086,2.0003906 C 2.6857782,2.0003906 2,2.7136 2,3.6 V 4.1 C 2,3.2136 2.6857782,2.5003906 3.538086,2.5003906 H 20.461914 C 21.314221,2.5003906 22,3.2136 22,4.1 V 3.6 C 22,2.7136 21.314221,2.0003906 20.461914,2.0003906 Z"/>
 <rect style="opacity:0.2;fill:#ffffff" width="20" height=".5" x="2" y="16"/>
</svg>

<svg xmlns="http://www.w3.org/2000/svg" width="24" height="24"><path style="opacity:.2" d="M3.538 21.5h16.924c.852 0 1.538-.714 1.538-1.6V16H2v3.9c0 .886.686 1.6 1.538 1.6z"/><path style="fill:#e4e4e4" d="M3.538 21h16.924c.852 0 1.538-.714 1.538-1.6V16H2v3.4c0 .886.686 1.6 1.538 1.6z"/><path style="fill:#3f3f3f" d="M3.538 2h16.924C21.314 2 22 2.714 22 3.6V16H2V3.6C2 2.714 2.686 2 3.538 2z"/><path style="fill:#7e7e7e" d="M10 18h10v1H10z"/><path style="fill:#f04113" d="M4 18h6v1H4z"/><path style="opacity:.2;fill:#fff" d="M9 18h2v1H9z"/><path style="opacity:.2" d="M12 4.5c-2.76 0-5 2.24-5 5s2.24 5 5 5 5-2.24 5-5-2.24-5-5-5zm0 .5c2.487 0 4.5 2.013 4.5 4.5S14.487 14 12 14a4.498 4.498 0 0 1-4.5-4.5C7.5 7.013 9.513 5 12 5zm-.996 2.25L11 11.75l3.6-2.246z"/><path style="fill:#fff" d="M14.6 9.003 11 11.25l.003-4.5z"/><path style="fill:#fff" d="M12 4C9.24 4 7 6.24 7 9s2.24 5 5 5 5-2.24 5-5-2.24-5-5-5zm0 .5c2.487 0 4.5 2.013 4.5 4.5s-2.013 4.5-4.5 4.5A4.498 4.498 0 0 1 7.5 9c0-2.487 2.013-4.5 4.5-4.5z"/><path style="opacity:.1" d="M4 19h16v.5H4z"/><path style="opacity:.1;fill:#fff" d="M3.538 2C2.686 2 2 2.714 2 3.6v.5c0-.886.686-1.6 1.538-1.6h16.924c.852 0 1.538.714 1.538 1.6v-.5c0-.886-.686-1.6-1.538-1.6z"/><path style="opacity:.2;fill:#fff" d="M2 16h20v.5H2z"/></svg>
